!!!!SEGMENT: pl-kj--bj-muz-13807-iii-1_zelenski-wladyslaw--spiew-solo-na-baryton-op-1.krn
!!!cenid: 18xx:3667
!!!COM: Żeleński, Władysław
!!!COM-rismID: pe41024455
!!!CDT: 1837/07/06-1921/01/23
!!!CNT: Polish
!!!OTL: Śpiew solo na baryton op. 1
!!!PDT:
!!!AGN:
!!!SMS-siglum: PL-Kj
!!!SMS-shelfmark: BJ Muz. 13807 III 1
!!!SMS-shelfwork: W
!!!SMS-variant:
!!!SMS-altvar:
!!!NIFC-rismSourceID:
!!!NIFC-islandoraID:
!!!URL-pdf-islandora:
!!!URL-scan: https://polona.pl/item/spiew-solo-na-baryton-op-1,ODYxODQ3MTk/0/#info:metadata @EN{Scan on Polona} @PL{Skany w portalu Polona}
!!!ONB-nifc:
!!!AIN: 2 empty
!!!key: G
**kern	**kern	**dynam	**kern	**text	**dynam
*part2	*part2	*part2	*part1	*part1	*part1
*staff3	*staff2	*	*staff1	*staff1	*
*Iempty	*Iforte	*	*Iempty	*	*
*	*I"Fortepian	*	*I"Śpiew	*	*
*	*I'pf	*	*I'Ś	*	*
*	*ICklav	*	*ICvox	*	*
*clefF4	*clefG2	*	*clefF4	*	*
*k[f#c#]	*k[f#c#]	*	*k[f#c#]	*	*
*G:	*G:	*	*G:	*	*
*M4/4	*M4/4	*	*M4/4	*	*
*met(c)	*met(c)	*	*met(c)	*	*
=1	=1	=1	=1	=1	=1
*^	*	*	*	*	*
!	!	!	!	!LO:TX:a:b:i:t=Andante.	!	!
8D/L	1D	2f#/ 2ff#	p	1r	.	.
8A/	.	.	.	.	.	.
8d/	.	.	.	.	.	.
8A/J	.	.	.	.	.	.
8G/L	.	4e/ 4ee	.	.	.	.
8A/	.	.	.	.	.	.
8F#/	.	4d/ 4dd	.	.	.	.
8A/J	.	.	.	.	.	.
*v	*v	*	*	*	*	*
=2	=2	=2	=2	=2	=2
8AA\L	4c#/ 4cc#S	.	1r	.	.
8A\	.	.	.	.	.
!	!LO:TUP:a:problem=klamra łukowa	!	!	!	!
!	!LO:TUP:a	!	!	!	!
8g\	12ee\L	.	.	.	.
.	12dd\	.	.	.	.
8A\J	.	.	.	.	.
.	12b\J	.	.	.	.
8f#\L	4.a/	.	.	.	.
8A\	.	.	.	.	.
8c#\	.	.	.	.	.
8A\J	8g/	.	.	.	.
!!LO:LB:g=original
=3	=3	=3	=3	=3	=3
*^	*^	*	*	*	*
8D/L	1D	4f#/	2ryy	.	1r	.	.
8A/J	.	.	.	.	.	.	.
[4d/	.	8r	.	.	.	.	.
.	.	8a/	.	.	.	.	.
8d/L]	.	8b/L	2g\	<	.	.	.
8c#/	.	8cc#/	.	.	.	.	.
8B/	.	8dd/	.	.	.	.	.
8B-X/J	.	8ee/J	.	.	.	.	.
=4	=4	=4	=4	=4	=4	=4	=4
8A/L	1D	4ff#/	4f#\	[	1r	.	.
8A/J	.	.	.	.	.	.	.
[4d/	.	8r	4ryy	.	.	.	.
.	.	8f#/ 8a	.	pp	.	.	.
8d/L]	.	8b/L	2g\	<	.	.	.
8c#/	.	8cc#/	.	.	.	.	.
8B/	.	8dd/	.	.	.	.	.
8B-X/J	.	8ee/J	.	.	.	.	.
=5	=5	=5	=5	=5	=5	=5	=5
8A/L	[1D	4ff#/	4f#\	[	2r	.	.
8A/	.	.	.	.	.	.	.
8d/	.	8r	8ryy	.	.	.	.
(8c#/J	.	[8a/	(8e\	>	.	.	.
!	!	!	!	!	!	!	!LO:DY:a
8d/L	.	2a/_	8f#\L	.	4A\	Gdy	p
8c#/	.	.	8e\	.	.	.	.
8d/	.	.	8f#\	.	4A\	po	.
8c#/J	.	.	8e\J	.	.	.	.
!!LO:LB:g=original
=6	=6	=6	=6	=6	=6	=6	=6
8d/)	4D\]	8a/L]	8f#\)	]	4A\	zdro-	.
8ryy	.	8f#/	(4A\ 4d	.	.	.	.
4r	4ryy	8a/)	.	.	4d\	-wię	.
.	.	8A'/J 8d 8f#	4ryy	.	.	.	.
4E\	2ryy	8r	.	.	4.c#\	słoń-	.
.	.	8g/L	(4A\ 4c# 4g	.	.	.	.
4r	.	8a/)	.	.	.	.	.
.	.	8A'/J 8c# 8g	8ryy	.	8B\	-ce	.
*v	*v	*	*	*	*	*	*
=7	=7	=7	=7	=7	=7	=7
4F#\	8r	8ryy	.	([4A\	z ra-	.
.	8f#/L	(4A\ 4d	.	.	.	.
!	!	!	!	!LO:TUP:a:problem=klamra łukowa	!	!
4r	8a/)	.	.	12A\L]	.	.
.	.	.	.	12c#\	.	.
.	8A'/J 8d 8f#	4ryy	.	.	.	.
.	.	.	.	12B\J)	.	.
4FF#/	8r	.	.	16A\	-ba	.
.	.	.	.	16r	.	.
.	8f#/L	(4A\ 4d	.	8A\	Przed	.
4r	8a/)	.	.	8G\	Stwor-	.
.	8A'/J 8d 8f#	8ryy	.	8F#\	-cę	.
!!LO:PB:g=original
=8	=8	=8	=8	=8	=8	=8
4GG/	8r	8ryy	.	4E\	ze-	.
.	8e/L	(4B\ 4d	.	.	.	.
4r	8b/)	.	.	8.B\	-gnę	.
.	8B'/J 8d 8e	4ryy	.	.	.	.
.	.	.	.	16B\	ko-	.
4AA/	8r	.	.	(4.A\	-la-	.
.	8e/L	(4A\ 4c# 4e	.	.	.	.
4r	8a/)	.	.	.	.	.
.	8A'/J 8c# 8e	8ryy	.	8G\)	.	.
=9	=9	=9	=9	=9	=9	=9
*^	*	*	*	*	*	*
!	!	!	!	!LO:HP:b=2	!	!	!
4r	1D	8r	8ryy	<	4F#\	-na	.
.	.	8f#/L	(4A\ 4d 4f#	.	.	.	.
8r	.	8a/)	.	.	4r	.	.
(8c#/	.	[8a/J	(8e\	.	.	.	.
!	!	!	!	!LO:HP:b=2	!	!	!
8d/L	.	2a/_	8f#\L	[ >	4A\	Nim	.
8c#/	.	.	8e\	.	.	.	.
8d/	.	.	8f#\	.	4A\	znak	.
8c#/J	.	.	8e\J	.	.	.	.
=10	=10	=10	=10	=10	=10	=10	=10
8d/)	4D\	8a/]	8f#\)	]	4A\	świę-	.
8ryy	.	8f#/L	(4A\ 4d	.	.	.	.
4ryy	4r	8a/)	.	.	4d\	-ty	.
.	.	8A'/J 8d 8f#	4ryy	.	.	.	.
2ryy	4E\	8r	.	.	4.c#\	krzy-	.
.	.	8g/L	(4A\ 4c# 4g	.	.	.	.
.	4r	8a/)	.	.	.	.	.
.	.	8A'/J 8c# 8g	8ryy	.	8B\	-ża	.
*v	*v	*	*	*	*	*	*
!!LO:LB:g=original
=11	=11	=11	=11	=11	=11	=11
4F#\	8r	8ryy	.	([4A\	zro-	.
.	8f#/L	(4A\ 4d 4f#	.	.	.	.
!	!	!	!	!LO:TUP:a:problem=klamra łukowa	!	!
4r	8a/)	.	.	12A\L]	.	.
.	.	.	.	12c#\	.	.
.	8A'/J 8d 8f#	4ryy	.	.	.	.
.	.	.	.	12B\J)	.	.
4FF#/	8r	.	.	16A\	-bię	.
.	.	.	.	16r	.	.
!	!	!	!	!	!	!LO:DY:a
.	8f#/L	(4A\ 4d 4f#	<	8A\	Pew-	<
4r	8a/)	.	.	8C#/	-no	.
.	8A'/J 8d 8f#	8ryy	.	8D/	po-	.
=12	=12	=12	=12	=12	=12	=12
4GG/	8r	8ryy	.	4E\	-my-	.
.	8e/L	(4B\ 4d 4e	.	.	.	.
4r	8b/)	.	.	8E\	-ślę	.
.	8B'/J 8d 8e	4ryy	[	8E\	o	.
!	!	!	!	!	!	!LO:DY:a
4GG/	8r	.	.	2E#X\	To-	[ > ]]
.	8e#X/L	(4B\ 4d 4e#	>	.	.	.
4r	8b/)	.	.	.	.	.
.	8B'/J 8d 8e#	8ryy	.	.	.	.
*	*v	*v	*	*	*	*
=13	=13	=13	=13	=13	=13
4FF#/	8r	]	4F#\	-bie	.
.	8A#X/ 8c# 8f#	.	.	.	.
4EE/ 4E	8r	.	4r	.	.
.	8F#/ 8f#	<	.	.	.
!	!	!	!	!	!LO:DY:a
4DD/ 4D	4F#/ 4f#	.	4F#\	kie-	<
4CC#/ 4C#	8F#/ 8e 8f#	.	4F#\	-dy	[[
.	8r	[[	.	.	.
!!LO:LB:g=original
=14	=14	=14	=14	=14	=14
!	!	!	!	!	!LO:DY:a
(2BBB/ 2BB	8r	.	4.d\	słon-	mf
.	8F#/L 8d 8f#	.	.	.	.
.	8F#/ 8d 8f#	.	.	.	.
.	8F#/J 8d 8f#	.	8d\	-kow	.
4EE/ 4E	8r	.	4c#\	pół	.
.	8B/ 8c# 8g	.	.	.	.
4EE#X/) 4E#X	8r	.	4G#X\	na	.
.	8B/ 8c# 8g#X	.	.	.	.
=15	=15	=15	=15	=15	=15
!	!	!	!	!	!LO:DY:a
(2FF#/ 2F#	8r	>	2B\	nie-	>
.	8B/L 8d 8g#X	.	.	.	.
.	8B/ 8d 8g#	.	.	.	.
.	8B/J 8d 8g#	.	.	.	.
4FF#/ 4F#	8r	.	8A#X\	-bie	]
!	!	!	!	!	!LO:DY:a
.	8A#X/ 8c# 8f#	]	4F#\	Poł	p
4EE/) 4E	8r	.	.	.	.
.	8F#/ 8f#	.	8F#\	w o-	.
=16	=16	=16	=16	=16	=16
!	!	!	!	!	!LO:DY:a
(4DD/ 4D	8F#/ 8f#	<	4F#\	-bło-	<
.	4F#/ 4f#	.	.	.	.
4BBB/ 4BB	.	.	4B\	-ku	.
.	8d/ 8f# 8b	.	.	.	.
4AAA#X/ 4AA#X	8r	.	4c#\	lśni	.
.	8e/ 8f# 8cc#	.	.	.	.
4BBB/) 4BB	8r	.	4d\	w ża-	[[
.	8d/ 8f# 8dd	[[	.	.	.
!!LO:PB:g=original
=17	=17	=17	=17	=17	=17
*^	*^	*	*	*	*
2C#/	1CC#	8r	8ryy	.	4e\	-ło-	.
.	.	8b-X/L 8ee	(4e\ 4g	sf	.	.	.
.	.	8a/J)	.	.	4A\	-bie.	.
.	.	8a/	8e\ 8g	.	.	.	.
2C#/	.	8r	8ryy	.	2r	.	.
.	.	4e/ 4g	8B-X\L	pp >	.	.	.
.	.	.	8A\J	.	.	.	.
.	.	8e/ 8g	8A'\	.	.	.	.
*	*	*v	*v	*	*	*	*
=18	=18	=18	=18	=18	=18	=18
8D/L	1D	2f#/ 2ff#	] p	2r	.	.
8A/	.	.	.	.	.	.
8d/	.	.	.	.	.	.
8A/J	.	.	.	.	.	.
!	!	!	!	!	!	!LO:DY:a
8G/L	.	4e/ 4ee	.	4A\	Smut-	p
8A/	.	.	.	.	.	.
8F#/	.	4d/ 4dd	.	4d\	-nym	.
8A/J	.	.	.	.	.	.
*v	*v	*	*	*	*	*
=19	=19	=19	=19	=19	=19
!	!	!LO:HP:t=crescendo sempre	!	!	!LO:HP:a:i:t=crescendo sempre
8AA\L	4c#/ 4cc#	<	8c#\	wten-	<
8A\	.	.	8c#\	-czas	.
!	!LO:TUP:a:problem=klamra łukowa	!	!LO:TUP:a:problem=klamra łukowa	!	!
8g\	12ee\L	.	12e\L	żem	.
.	12dd\	.	12d\J	.	.
8A\J	.	.	.	.	.
.	12b\J	.	12B\	bez	.
8f#\L	4.a/	.	(4.A\	Cie-	.
8A\	.	.	.	.	.
8c#\	.	.	.	.	.
8A\J	8g/	.	8G\)	.	.
!!LO:LB:g=original
=20	=20	=20	=20	=20	=20
*^	*	*	*	*	*
8D/L	1D	4f#/	.	4F#\	-bie	.
8A/	.	.	.	.	.	.
8d/	.	4r	.	4r	.	.
8c#/J	.	.	.	.	.	.
8B/L	.	8r	.	8r	.	.
8A/	.	8a/L	.	(8A\L	A	.
8G/	.	8c#/	.	8C#\J)	.	.
8F#/J	.	8d/J	.	8D\	we-	.
*v	*v	*	*	*	*	*
=21	=21	=21	=21	=21	=21
8G\	8r	>	8E\	-so-	>
8r	8B/ 8d 8e	.	8E\	-ła	.
8GG#X/	8r	.	8E\	myśl	.
8r	8B/ 8d 8e#X	.	8E#X\	o	.
!	!	!	!	!	!LO:DY:a
8AA/	8r	.	(4F#\	To-	pp
8r	8A/ 8d 8f#	pp	.	.	.
8AA/	8r	.	4A\)	.	]]
8r	8A/ 8c# 8gn	]]	.	.	.
=22	=22	=22	=22	=22	=22
*^	*^	*	*	*	*
8D/L	1D	8A/ 8d 8f#	2ryy	.	2D\	-bie.	.
8A/J	.	8r	.	.	.	.	.
[4d/	.	8r	.	.	.	.	.
.	.	8f#/ 8a	.	<	.	.	.
8d/L]	.	8b/L	2g\	.	2r	.	.
8c#/	.	8cc#/	.	.	.	.	.
8B/	.	8dd/	.	.	.	.	.
8B-X/J	.	8ee/J	.	[	.	.	.
!!LO:LB:g=original
=23	=23	=23	=23	=23	=23	=23	=23
8A/L	1D	4ff#/	4f#\	.	1r	.	.
8A/J	.	.	.	.	.	.	.
[4d/	.	8r	4ryy	.	.	.	.
.	.	8a/	.	<	.	.	.
8d/L]	.	8b/L	2g\	.	.	.	.
8c#/	.	8cc#/	.	.	.	.	.
8B/	.	8dd/	.	.	.	.	.
8B-X/J	.	8ee/J	.	[	.	.	.
=24	=24	=24	=24	=24	=24	=24	=24
8A/L	[1D	4ff#/	4f#\	.	1r	.	.
8A/	.	.	.	.	.	.	.
8d/	.	8r	8ryy	.	.	.	.
(8c#/J	.	[8a/	(8e\	ppp	.	.	.
8d/L	.	2a/_	8f#\L	.	.	.	.
8c#/	.	.	8e\	.	.	.	.
8d/	.	.	8f#\	.	.	.	.
8c#/J	.	.	8e\J	.	.	.	.
=25	=25	=25	=25	=25	=25	=25	=25
!	!	!	!	!	!LO:TX:a:i:t=piu moto	!	!
8d/)	8D\]	8a/]	8f#\)	.	2r	.	.
!	!	!LO:TX:b:i:t=piu moto	!	!	!	!	!
8r	8ryy	8d/L	8ryy	.	.	.	.
4r	4ryy	8d/	4ryy	.	.	.	.
.	.	8d/J	.	.	.	.	.
2r	2ryy	8d/L	2ryy	.	8r	.	.
!	!	!	!	!	!	!	!LO:DY:a
.	.	8d/	.	.	8D\	Lu-	p
.	.	8d/	.	.	8Fn\	-bię	.
.	.	8d/J	.	.	8G\	wie-	.
*v	*v	*	*	*	*	*	*
*	*v	*v	*	*	*	*
!!LO:PB:g=original
=26	=26	=26	=26	=26	=26
*	*Xtuplet	*	*	*	*
8DD/L	24r	.	(4A\	-czo-	.
.	(24d/LL	.	.	.	.
.	24fn/	.	.	.	.
8D/J	24a^/	.	.	.	.
.	24f/	.	.	.	.
.	24d/JJ)	.	.	.	.
8DD/L	24r	.	4d\)	.	.
.	(24f/LL	.	.	.	.
.	24a/	.	.	.	.
8D/J	24dd^/	.	.	.	.
.	24a/	.	.	.	.
.	24f/JJ)	.	.	.	.
8DD/L	24r	.	4c#\	-ra	.
.	(24e/LL	.	.	.	.
.	24g/	.	.	.	.
8D/J	24cc#^/	.	.	.	.
.	24g/	.	.	.	.
.	24e/JJ)	.	.	.	.
8DD/L	24r	.	8r	.	.
.	(24c#/LL	.	.	.	.
.	24g/	.	.	.	.
8D/J	24b-X^/	.	8B-X\	za-	.
.	24g/	.	.	.	.
.	24c#/JJ)	.	.	.	.
!!LO:LB:g=original
=27	=27	=27	=27	=27	=27
8DD/L	24r	.	4A\	-ci-	.
.	(24cn/LL	.	.	.	.
.	24f#X/	.	.	.	.
8D/J	24a^/	.	.	.	.
.	24f#/	.	.	.	.
.	24c/JJ)	.	.	.	.
8DD/L	24r	.	4A\	-sze	.
.	(24c/LL	.	.	.	.
.	24f#/	.	.	.	.
8D/J	24a^/	.	.	.	.
.	24f#/	.	.	.	.
.	24c/JJ)	.	.	.	.
8DD/L	24r	.	4r	.	.
.	(24Bn/LL	.	.	.	.
.	24fn/	.	.	.	.
8D/J	24g#X^/	.	.	.	.
.	24f/	.	.	.	.
.	24B/JJ)	.	.	.	.
8DD/L	24r	.	8G#X\	Noc	.
.	(24B/LL	.	.	.	.
.	24f/	.	.	.	.
8D/J	24g#^/	.	8G#\	i	.
.	24f/	.	.	.	.
.	24B/JJ)	.	.	.	.
!!LO:LB:g=original
=28	=28	=28	=28	=28	=28
8DD/L	24r	.	4Gn\	świa-	.
.	(24B-X/LL	.	.	.	.
.	24e/	.	.	.	.
8D/J	24gn^/	.	.	.	.
.	24e/	.	.	.	.
.	24B-/JJ)	.	.	.	.
8CC#X/L	24r	.	4G\	-tło	.
.	(24A/LL	.	.	.	.
.	24e/	.	.	.	.
8C#X/J	24g^/	.	.	.	.
.	24e/	.	.	.	.
.	24A/JJ)	.	.	.	.
8DD/L	24r	.	4r	.	.
.	(24A/LL	.	.	.	.
.	24d/	.	.	.	.
8D/J	24fn^/	.	.	.	.
.	24d/	.	.	.	.
.	24A/JJ)	.	.	.	.
8DD/L	24r	.	8Fn\	mo-	.
.	(24G#X/LL	.	.	.	.
.	24Bn/	.	.	.	.
8D/J	24f^/	.	8F\	-cy	.
.	24B/	.	.	.	.
.	24G#/JJ)	.	.	.	.
!!LO:PB:g=original
=29	=29	=29	=29	=29	=29
8AAA/L	24r	.	4E\	o-	.
.	(24A/LL	.	.	.	.
.	24c#X/	.	.	.	.
8AA/J	24e^/	.	.	.	.
.	24c#/	.	.	.	.
.	24A/JJ)	.	.	.	.
8GG/L	24r	.	4E\	-bie	.
!	!LO:TX:b:t=cres-cen-do-poco-a-poco:ext2=cd:problem=dynamics with extention lines	!	!	!	!
.	(24A/LL	<	.	.	.
.	24c#/	.	.	.	.
8G/J	24e^/	.	.	.	.
.	24c#/	.	.	.	.
.	24A/JJ)	.	.	.	.
8FFn/L	24r	.	8r	.	.
.	(24A/LL	.	.	.	.
.	24d/	.	.	.	.
!	!	!	!LO:TX:b:t=cres-cen-do-poco-a-poco:ext2=cd:problem=dynamics with extention lines	!	!LO:DY:a
8Fn/J	24fn^/ 24a	.	(8D\L	Jak	<
.	24d/	.	.	.	.
.	24A/JJ)	.	.	.	.
8EE/L	24r	.	8Fn\J)	.	.
.	(24A/LL	.	.	.	.
.	24c#/	.	.	.	.
8E/J	24g^/ 24a	.	8G\	noc	.
.	24c#/	.	.	.	.
.	24A/JJ)	.	.	.	.
!!LO:LB:g=original
=30	=30	=30	=30	=30	=30
8DD/L	24r	.	4A\	prze-	.
.	(24A/LL	.	.	.	.
.	24d/	.	.	.	.
8D/J	24fn^/ 24a	[	.	.	.
.	24d/	.	.	.	[
.	24A/JJ)	.	.	.	.
8DD/L	24r	.	4d\	-szłość	.
.	(24A/LL	.	.	.	.
.	24d/	.	.	.	.
8D/J	24f^/ 24a	.	.	.	.
.	24d/	.	.	.	.
.	24A/JJ)	.	.	.	.
8CCn/L	24r	.	4.d\	w du-	.
.	(24d/LL	.	.	.	.
.	24fn/	.	.	.	.
8Cn/J	24a^/ 24dd	.	.	.	.
.	24f/	.	.	.	.
.	24d/JJ)	.	.	.	.
8BBB/L	24r	.	.	.	.
.	(24G/LL	.	.	.	.
.	24d/	.	.	.	.
8BB/J	24f^/ 24g	.	8Gn\	-szy	.
.	24d/	.	.	.	.
.	24G/JJ)	.	.	.	.
!!LO:LB:g=original
=31	=31	=31	=31	=31	=31
8BBB-X/L	24r	.	4G\	czu-	.
.	(24G/LL	.	.	.	.
.	24cn/	.	.	.	.
8BB-X/J	24e^/ 24g	.	.	.	.
.	24c/	.	.	.	.
.	24G/JJ)	.	.	.	.
!	!	!	!LO:TX:a:i:t=sempre piu forte ed impetuoso	!	!
8AAA/L	24r	.	4cn\	-ję	.
!	!LO:TX:b:i:t=sempre piu forte ed impetuoso	!	!	!	!
.	(24c/LL	.	.	.	.
.	24fn/	.	.	.	.
8AA/J	24a^/ 24ccn	.	.	.	.
.	24f/	.	.	.	.
.	24c/JJ)	.	.	.	.
8AAA/L	24r	.	4r	.	.
.	(24c/LL	.	.	.	.
.	24f/	.	.	.	.
8AA/J	24a^/ 24cc	.	.	.	.
.	24f/	.	.	.	.
.	24c/JJ)	.	.	.	.
8AAA/L	24r	.	8Fn\	A	.
.	(24Fn/LL	.	.	.	.
.	24c/	.	.	.	.
8AA/J	24f^/	.	8F\	jak	.
.	24c/	.	.	.	.
.	24F/JJ)	.	.	.	.
!!LO:PB:g=original
=32	=32	=32	=32	=32	=32
8AAA/L	24r	.	4Fn\	świat-	.
.	(24Fn/LL	.	.	.	.
.	24cn/	.	.	.	.
8AA/J	24fn^/	.	.	.	.
.	24c/	.	.	.	.
.	24F/JJ)	.	.	.	.
8BBBn/L	24r	.	4G\	-ło	.
.	(24G/LL	.	.	.	.
.	24d/	.	.	.	.
8BBn/J	24f^/ 24g	.	.	.	.
.	24d/	.	.	.	.
.	24G/JJ)	.	.	.	.
8CCn/L	24r	.	4A\	myśl	.
.	(24A/LL	.	.	.	.
.	24e-X/	.	.	.	.
8Cn/J	24f^/ 24a	.	.	.	.
.	24e-/	.	.	.	.
.	24A/JJ)	.	.	.	.
8BBB-X/L	24r	.	4B-X\	o	.
.	(24B-X/LL	.	.	.	.
.	24e-/	.	.	.	.
8BB-X/J	24g^/ 24b-X	.	.	.	.
.	24e-/	.	.	.	.
.	24B-/JJ)	.	.	.	.
!!LO:LB:g=original
=33	=33	=33	=33	=33	=33
!	!	!	!	!	!LO:HP:t=diminuendo
8AAA/L	24r	.	2.cn\	To-	>
!	!	!LO:HP:t=diminuendo	!	!	!
.	(24cn/LL	>	.	.	.
.	24e-X/	.	.	.	.
8AA/J	24fn^/ 24ccn	.	.	.	.
.	24e-/	.	.	.	.
.	24c/JJ)	.	.	.	.
8GGG/L	24r	.	.	.	.
.	(24c/LL	.	.	.	.
.	24en/	.	.	.	.
8GG/J	24b-X^/ 24cc	.	.	.	.
.	24e/	.	.	.	.
.	24c/JJ)	.	.	.	.
8FFFn/L	24r	.	.	.	.
.	(24c/LL	.	.	.	.
.	24e-X/	.	.	.	.
8FFn/J	24a^/ 24cc	.	.	.	.
.	24e-/	.	.	.	.
.	24c/JJ)	.	.	.	.
8FF/L	24r	.	4Fn\	-bie	.
.	(24e-/LL	.	.	.	.
.	24f/	.	.	.	.
8Fn/J	24a^/ 24cc#X	.	.	.	.
.	24f/	.	.	.	.
.	24e-/JJ)	.	.	.	.
!!LO:LB:g=original
=34	=34	=34	=34	=34	=34
*^	*	*	*	*	*
8BB-X/L	1BB-	2d/ 2dd	pp	2r	.	.
8Fn/	.	.	.	.	.	.
8B-X/	.	.	.	.	.	.
8F/J	.	.	.	.	.	.
!	!	!	!	!	!	!LO:DY:a
8E-X/L	.	4cn/ 4ccn	.	4Fn\	w no-	pp
8F/	.	.	.	.	.	.
8D/	.	4B-X/ 4b-X	.	4B-X\	-cy	.
8F/J	.	.	.	.	.	.
=35	=35	=35	=35	=35	=35	=35
*	*	*^	*	*	*	*
8Cn/L	1FFn	4A/ 4a	2ryy	.	8A\	czę-	.
8Fn/	.	.	.	.	8A\	-sto	.
8E-X/	.	12ccn/L	.	.	(12cn\L	w łzach	.
.	.	12b-X/	.	.	12B-X\J	.	.
8F/J	.	.	.	.	.	.	.
.	.	12g/J	.	.	12G\)	się	.
8D/L	.	4.fn/	8f\L	.	(4.Fn\	bu-	.
8F/	.	.	8B-X\J	.	.	.	.
8C/	.	.	4A\	.	.	.	.
8F/J	.	8e-X/	.	.	8E-X\)	.	.
!!LO:PB:g=original
=36	=36	=36	=36	=36	=36	=36	=36
!LO:N:vis=2	!	!	!	!	!	!	!
8BB-X/L	2BB-\	8B-X/ 8d	4ryy	.	4D\	-dzę	.
8Fn/	.	8r	.	.	.	.	.
8B-X/	.	4dd/	4d\	.	4r	.	.
8F/J	.	.	.	.	.	.	.
8D/L	4D\	4b-X/	4fn\	.	4B-X\	I	.
8d/J	.	.	.	.	.	.	.
8D#X/L	4D#\	4a/	4f#X\	.	4A\	wziąść	.
8cn/J	.	.	.	.	.	.	.
=37	=37	=37	=37	=37	=37	=37	=37
8E/L	4.E\	4g#X/S	4e\	.	8G#X\	ra-	.
8B/	.	.	.	.	8G#\	-dy	.
*	*	*tuplet	*	*	*	*	*
8B#X/	.	12bn/L	4d#X\	.	12Bn\L	nie	.
.	.	12a/	.	.	12A\J	.	.
8E/J	8E\	.	.	.	.	.	.
.	.	12f#/J	.	.	12F#X\	wiem	.
8c#X/L	2ryy	4.e/	2ryy	.	(4.E\	so-	.
8E/	.	.	.	.	.	.	.
(8G#X/	.	.	.	.	.	.	.
8E/J)	.	8d#/	.	.	8D\)	.	.
*v	*v	*	*	*	*	*	*
*	*v	*v	*	*	*	*
!!LO:LB:g=original
=38	=38	=38	=38	=38	=38
*	*Xtuplet	*	*	*	*
8AA/	(>24c#/LL	.	4C#/	-bie	.
.	24C#</	.	.	.	.
.	24E</	.	.	.	.
8AA\L	24A<^</	.	.	.	.
.	24E</	.	.	.	.
.	24C#</JJ)	.	.	.	.
8AAA\	24r	.	4r	.	.
.	(24E</LL	.	.	.	.
.	24A</	.	.	.	.
8AA\J	24c#<^</	.	.	.	.
.	24A</	.	.	.	.
.	24E</JJ)	.	.	.	.
8AAA\L	8r	.	8r	.	.
!	!	!LO:HP:t=crescendo sempre ed accelerando	!	!	!LO:HP:t=crescendo sempre ed accelerando
8AA\	4G/ 4c# 4e	sf <	8Gn\L	Ja-	<
8AAA\	.	.	8Fn\J	.	.
8AA\J	8G/ 8c# 8e	.	8E\	-kieś	.
=39	=39	=39	=39	=39	=39
8AAA/L	24r	.	8D\	sło-	.
.	(24Fn/LL	.	.	.	.
.	24A/	.	.	.	.
8AA/J	24d^/	.	8D\	-wa	.
.	24A/	.	.	.	.
.	24F/JJ)	.	.	.	.
8AAA/L	24r	.	4r	.	.
.	(24A/LL	.	.	.	.
.	24d/	.	.	.	.
8AA/J	24fn^/	.	.	.	.
.	24d/	.	.	.	.
.	24A/JJ)	.	.	.	.
8AAA/L	8r	.	8r	.	.
8AA/J	4B-X/ 4e 4g	sf	(8B-X\L	mó-	.
8AAA/L	.	.	8A\J)	.	.
8AA/J	8B-/ 8e 8g	.	8G\	-wię	.
!!LO:LB:g=original
=40	=40	=40	=40	=40	=40
8AAA/L	24r	.	8Fn\	cu-	.
.	(24A/LL	.	.	.	.
.	24d/	.	.	.	.
8AA/J	24fn^/ 24a	.	8F\	-dze	.
.	24d/	.	.	.	.
.	24A/JJ)	.	.	.	.
8AAA/L	24r	.	4r	.	.
.	(24d/LL	.	.	.	.
.	24f/	.	.	.	.
8AA/J	24g#X^/ 24bn	.	.	.	.
.	24f/	.	.	.	.
.	24d/JJ)	.	.	.	.
8AAA/L	8r	.	8r	.	.
8AA/J	4c#X/ 4g# 4b-X 4cc#X	sf	(8e\L	Pe-	.
8AAA/L	.	.	8d\J)	.	.
8AA/J	8c#/ 8g# 8b- 8cc#	.	8c#\	-wnie	.
=41	=41	=41	=41	=41	=41
!	!	!	!LO:TX:a:i:t=recitando	!	!LO:DY:a
2BBB-X/ 2BB-X	2d/ 2g#X 2dd	.	4.fn\	pe-	f
.	.	.	8e\	-wnie	.
2r	2r	.	8d\	mi	.
.	.	.	8d\	się	.
.	.	.	8d\	śni	.
.	.	.	8d\	o	.
!!LO:PB:g=original
=42	=42	=42	=42	=42	=42
2r;	2r;	.	4d\	To-	.
.	.	.	4G#X;\	-bie.	.
8BBB-X\L	24r	.	2r	.	.
!	!LO:TX:a:B:i:t=a tempo	!	!	!	!
.	24D</LL	pp	.	.	.
.	24G#X</	.	.	.	.
8BB-X\J	24d^/	.	.	.	.
.	24G#</	.	.	.	.
.	24D</JJ	<	.	.	.
8BBB-\L	24r	.	.	.	.
.	24G#</LL	.	.	.	.
.	24d/	.	.	.	.
8BB-\J	24g#X^/	.	.	.	.
.	24d/	.	.	.	.
.	24G#</JJ	.	.	.	.
=43	=43	=43	=43	=43	=43
8BBBn/L	24r	.	1r	.	.
.	24d/LL	.	.	.	.
.	24g#X/	.	.	.	.
8BB/J	24dd^/	.	.	.	.
.	24g#/	.	.	.	.
.	24d/JJ	.	.	.	.
8BBB/L	24r	.	.	.	.
.	24g#\LL	.	.	.	.
.	24dd\	.	.	.	.
8BB/J	24gg#X^\	[	.	.	.
.	24dd\	.	.	.	.
.	24g#\JJ	.	.	.	.
8EE/L	24r	.	.	.	.
!	!LO:TX:b:i:t=ritard. ma un poco	!	!	!	!
.	24dd\LL	>	.	.	.
.	24gg#\	.	.	.	.
8BB/J	24ddd^\	.	.	.	.
.	24gg#\	.	.	.	.
.	24dd\JJ	.	.	.	.
8EE/L	24r	.	.	.	.
.	24d/LL	.	.	.	.
.	24g#/	.	.	.	.
8BB/J	24dd^/	.	.	.	.
.	24g#/	.	.	.	.
.	24d/JJ	]]	.	.	.
!!LO:LB:g=original
=44	=44	=44	=44	=44	=44
!	!LO:TX:a:B:i:t=Tempo I.	!	!	!	!
8AA\L	2f#/ 2ff#	pp	1r	.	.
8A\	.	.	.	.	.
8d\	.	.	.	.	.
8A\J	.	.	.	.	.
8Gn\L	4e/ 4ee	.	.	.	.
8A\	.	.	.	.	.
8F#\	4d/ 4dd	.	.	.	.
8A\J	.	.	.	.	.
=45	=45	=45	=45	=45	=45
8AA\L	4c#/ 4cc#S	.	2r	.	.
8A\	.	.	.	.	.
*	*tuplet	*	*	*	*
!	!LO:TUP:a:problem=klamra łukowa	!	!	!	!
8g\	12ee\L	.	.	.	.
.	12dd\	.	.	.	.
8A\J	.	.	.	.	.
.	12b\J	.	.	.	.
!	!	!	!	!	!LO:DY:a
8f#\L	4.a/	.	4A\	A	p
8A\	.	.	.	.	.
8c#\	.	.	8A\L	gdy	.
8A\J	8g/	.	8A\J	na	.
=46	=46	=46	=46	=46	=46
*	*^	*	*	*	*
4D\	8f#/	8ryy	.	(4A\	śmier-	.
.	8f#/L	(4A\ 4d 4f#	.	.	.	.
4r	8a/)	.	.	4d\)	.	.
.	8A'/J 8d 8f#	4ryy	.	.	.	.
4E\	8r	.	.	4.c#\	-ci	.
.	8g/L	(4A\ 4c# 4g	.	.	.	.
4r	8a/)	.	.	.	.	.
.	8A'/J 8c# 8g	8ryy	.	8B\	po-	.
!!LO:LB:g=original
=47	=47	=47	=47	=47	=47	=47
4F#\	8r	8ryy	.	([4A\	-sła-	.
.	8f#/L	(4A\ 4d 4f#	.	.	.	.
!	!	!	!	!LO:TUP:a:problem=klamra łukowa	!	!
4r	8a/)	.	.	12A\L]	.	.
.	.	.	.	12c#\	.	.
.	8A'/J 8d 8f#	4ryy	.	.	.	.
.	.	.	.	12B\J)	.	.
4FF#/	8r	.	.	16A\	-niu	.
.	.	.	.	16r	.	.
.	8f#/L	(4A\ 4c# 4f#	.	8A\	Z tym	.
4r	8a/)	.	.	8G\	świa-	.
.	8A'/J 8c# 8f#	8ryy	.	8F#\	-tem	.
=48	=48	=48	=48	=48	=48	=48
4GG/	8r	8ryy	.	4E\	bę-	.
.	8e/L	(4B\ 4d 4e	.	.	.	.
4r	8b/)	.	.	8.B\	-dę	.
.	8B'/J 8d 8e	4ryy	.	.	.	.
.	.	.	.	16B\	w roz-	.
4AA/	8r	.	.	(4.A\	-sta-	.
.	8e/L	(4A\ 4c# 4e	.	.	.	.
4r	8a/)	.	.	.	.	.
.	8A'/J 8c# 8e	8ryy	.	8G\)	.	.
=49	=49	=49	=49	=49	=49	=49
*^	*	*	*	*	*	*
4r	[1D	8r	8ryy	<	4F#\	-niu.	.
.	.	8f#/L	(4A\ 4d	.	.	.	.
8r	.	8a/J)	.	.	4r	.	.
(8c#/	.	[8a/	(8e\	.	.	.	.
8d/L	.	2a/_	8f#\L	[ >	4A\	Wstrzy-	.
8c#/	.	.	8e\	.	.	.	.
8d/	.	.	8f#\	.	4A\	-mam	.
8c#/J)	.	.	8e\J)	.	.	.	.
!!LO:PB:g=original
=50	=50	=50	=50	=50	=50	=50	=50
8d/	4D\]	8f#/ 8a]	8ryy	]	4A\	.	.
8ryy	.	8f#/L	(4A\ 4d	.	.	.	.
4ryy	4r	8a/)	.	.	4d\	.	.
.	.	8A'/J 8d 8f#	4ryy	.	.	.	.
2ryy	4E\	8r	.	.	4.c#\	.	.
.	.	8g/L	(4A\ 4c# 4g	.	.	.	.
.	4r	8a/)	.	.	.	.	.
.	.	8A'/J 8c# 8g	8ryy	.	8B\	.	.
*v	*v	*	*	*	*	*	*
=51	=51	=51	=51	=51	=51	=51
4F#\	8r	8ryy	.	([4A\	.	.
.	8f#/L	(4A\ 4d	.	.	.	.
!	!	!	!	!LO:TUP:a:problem=klamra łukowa	!	!
4r	8a/)	.	.	12A\L]	.	.
.	.	.	.	12c#\	.	.
.	8A'/J 8d 8f#	4ryy	.	.	.	.
.	.	.	.	12B\J)	.	.
4FF#/	8r	.	.	16A\	.	.
.	.	.	.	16r	.	.
!	!	!	!	!	!	!LO:DY:a
.	8f#/L	(4A\ 4d	<	8A\	.	<
4r	8a/)	.	.	8C#/	.	.
.	8A'/J 8d 8f#	8ryy	.	8D\	.	.
*	*v	*v	*	*	*	*
=52	=52	=52	=52	=52	=52
4GG/	8r	.	2E\	.	.
.	8B/L 8d 8e	.	.	.	.
4r	8B/ 8d 8e	.	.	.	.
.	8B/J 8d 8e	.	.	.	.
4GG/	8r	.	4E\	.	.
.	8B/ 8d 8e	.	.	.	.
4GG#X/	8r	.	4E#X\	.	[[
.	8B/ 8d 8e#X	.	.	.	.
!!LO:LB:g=original
=53	=53	=53	=53	=53	=53
4AA/	8r	.	4F#\	To-	.
.	8A/ 8d 8f#	.	.	.	.
4DD/	8r	.	2d\	-bie,	.
.	8A/ 8d 8f#	.	.	.	.
4Cn/	8r	.	.	.	.
.	8A/ 8d 8f#	[	.	.	.
4BB/	8r	.	4G#X\	o	.
.	8d/ 8e 8g#X	.	.	.	.
=54	=54	=54	=54	=54	=54
8AA/	8r	>	1A	To-	.
8r	8d/ 8f# 8a	.	.	.	.
8AA/	8r	.	.	.	.
8r	8A#X/ 8d 8f#	.	.	.	.
8AA/	8r	.	.	.	.
8r	8B/ 8d 8g	.	.	.	.
8AA/	8r	.	.	.	.
8r	8G/ 8c# 8e	.	.	.	.
=55	=55	=55	=55	=55	=55
*^	*^	*	*	*	*
8D/L	1D	8F#/ 8d	2ryy	.	2D\	-bie.	.
8A/J	.	8r	.	]	.	.	.
[4d/	.	8r	.	.	.	.	.
.	.	8f#/ 8a	.	<	.	.	.
8d/L]	.	8b/L	2g\	.	2r	.	.
8c#/	.	8cc#/	.	.	.	.	.
8B/	.	8dd/	.	.	.	.	.
8B-X/J	.	8ee/J	.	.	.	.	.
!!LO:LB:g=original
=56	=56	=56	=56	=56	=56	=56	=56
8A/L	1D	4ff#/	4f#\	[	1r	.	.
8A/J	.	.	.	.	.	.	.
[4d/	.	8r	4ryy	.	.	.	.
.	.	8f#/ 8a	.	pp <	.	.	.
8d/L]	.	8b/L	2g\	.	.	.	.
8c#/	.	8cc#/	.	.	.	.	.
8B/	.	8dd/	.	.	.	.	.
8B-X/J	.	8ee/J	.	[[	.	.	.
=57	=57	=57	=57	=57	=57	=57	=57
8A/L	[1D	4ff#/	4f#\	.	1r	.	.
8A/	.	.	.	.	.	.	.
8d/	.	8r	8ryy	.	.	.	.
(8c#/J	.	[8a/	(8e\	ppp	.	.	.
8d/L	.	2a/_	8f#\L	.	.	.	.
8c#/	.	.	8e\	.	.	.	.
8d/	.	.	8f#\	.	.	.	.
8c#/J	.	.	8e\J	.	.	.	.
=58	=58	=58	=58	=58	=58	=58	=58
8d/)	8D\]	8a/]	8f#\)	.	1r	.	.
8AA/L	[4.DD\	8r	8ryy	.	.	.	.
8D/	.	8r	8ryy	.	.	.	.
*	*	*clefF4	*	*	*	*	*
!	!	!LO:TX:b:i:t=rall.	!	!	!	!	!
(8C#/J	.	[8A/	(8E\	.	.	.	.
8D/L	2DD\_	2A/_	8F#\L	.	.	.	.
8C#/	.	.	8E\	.	.	.	.
8D/	.	.	8F#\	.	.	.	.
8C#/J	.	.	8E\J	.	.	.	.
=59	=59	=59	=59	=59	=59	=59	=59
1D;)	1DD]	1A;]	1F#)	.	1r;	.	.
*v	*v	*	*	*	*	*	*
*	*v	*v	*	*	*	*
==	==	==	==	==	==
*-	*-	*-	*-	*-	*-
!!!system-decoration: s1[(s2,s3)]
!!!RDF**kern: > = above
!!!RDF**kern: < = below
!!!RDF**dynam: > = dimin.
!!!ENC: Andrzej Gręziak
!!!END: 2022-03-09
!!!ENC: Leszek Kubiak
!!!END: 2022-03-18
